src/categories-icons-sprite/categories/svg-cat-prod-coffee.svg

<svg width="33" height="32" viewBox="0 0 33 32" fill="none" xmlns="http://www.w3.org/2000/svg">
<path class="p-F4D7AF" d="M25.1889 28.9774H23.2249V26.9623H25.1889C27.9666 26.9623 30.2267 24.7022 30.2267 21.9245C30.2267 19.1468 27.9666 16.8867 25.1889 16.8867H22.9219V14.8716H25.1889C29.0775 14.8716 32.2418 18.0359 32.2418 21.9245C32.2418 25.8131 29.0775 28.9774 25.1889 28.9774Z" fill="#76B7E2"/>
<path class="p-F4D7AF" d="M22.489 30.7507L21.7234 32.0001H7.05325L2.96248 23.7179C2.3378 20.7758 2.31778 17.7733 2.84158 14.8716L14.1062 12.8564L25.3506 14.8716C26.3178 20.2922 25.3506 25.9749 22.489 30.7507Z" fill="#76B7E2"/>
<path class="p-DABBA6" d="M22.4883 30.7507L21.7227 32.0001H14.1055V12.8564L25.3499 14.8716C26.3171 20.2922 25.3499 25.9749 22.4883 30.7507Z" fill="#4D98CB"/>
<path class="p-FAECD8" d="M13.0746 6.04536C13.0746 7.01255 12.6513 7.93957 11.9259 8.58441L10.5959 7.05292C10.878 6.8111 11.0594 6.44838 11.0594 6.04536C11.0594 5.66249 10.878 5.29976 10.5959 5.05795C9.87044 4.41311 9.44727 3.48609 9.44727 2.53905C9.44727 1.57186 9.87051 0.644838 10.5959 0L11.9259 1.53149C11.6438 1.77331 11.4624 2.13603 11.4624 2.53905C11.4624 2.92192 11.6438 3.28464 11.9259 3.52646C12.6513 4.1713 13.0746 5.09832 13.0746 6.04536Z" fill="#B9DFFC"/>
<path class="p-FAECD8" d="M16.9619 8.57749L15.6355 7.06024C15.9248 6.80735 16.0911 6.44133 16.0911 6.05564C16.0911 5.66994 15.9248 5.30393 15.6355 5.05103C14.9084 4.4154 14.4912 3.49637 14.4912 2.52918C14.4912 1.56199 14.9084 0.64296 15.6355 0.00732422L16.9619 1.52457C16.6726 1.77747 16.5063 2.14349 16.5063 2.52918C16.5063 2.91487 16.6726 3.28089 16.9619 3.53378C17.689 4.16942 18.1062 5.08845 18.1062 6.05564C18.1062 7.02283 17.689 7.94186 16.9619 8.57749Z" fill="#B9DFFC"/>
<path class="p-FAECD8" d="M25.3498 14.8714H2.84082C3.12294 13.3802 3.52603 11.9092 4.11035 10.4583H4.26702H23.707H24.1005C24.6848 11.8891 25.0677 13.3802 25.3498 14.8714Z" fill="#B9DFFC"/>
<path class="p-F4D7AF" d="M25.3499 14.8714H14.1055V10.4583H23.7069H24.1005C24.6848 11.8891 25.0677 13.3802 25.3499 14.8714Z" fill="#76B7E2"/>
<path class="p-714C2F" d="M14.0253 27.5867C13.6021 30.1056 10.7204 31.9998 7.05292 31.9998C3.10322 31.9998 0 29.7832 0 26.962C0 26.7 0.0605208 26.438 0.100756 26.1962C1.99497 28.1308 4.89674 26.3777 7.05292 24.9468C8.88661 23.7176 11.2646 25.7327 13.0983 26.962L14.0253 27.5867Z" fill="#76B7E2"/>
<path class="p-523522" d="M14.0251 27.5867C13.6019 30.1056 10.7203 31.9998 7.05273 31.9998V24.9468C8.88643 23.7176 11.2644 25.7327 13.0981 26.962L14.0251 27.5867Z" fill="#4D98CB"/>
<path class="p-895D3C" d="M14.1057 26.9621C14.1057 27.1636 14.0451 27.3651 14.0251 27.5868L13.0981 26.9621C11.2644 25.7329 8.88644 25.7329 7.05275 26.9621C4.89657 28.3929 1.9948 28.1309 0.100586 26.1964C0.604366 23.758 3.46577 21.9243 7.05275 21.9243C11.0025 21.9243 14.1057 24.1409 14.1057 26.9621Z" fill="#B9DFFC"/>
<path class="p-714C2F" d="M14.1057 26.9621C14.1057 27.1636 14.0451 27.3651 14.0251 27.5868L13.0981 26.9621C11.2644 25.7329 8.88643 25.7329 7.05273 26.9621V21.9243C11.0024 21.9243 14.1057 24.1409 14.1057 26.9621Z" fill="#A1D1FD"/>
</svg>

<svg width="33" height="32" fill="none" xmlns="http://www.w3.org/2000/svg"><path class="p-F4D7AF" d="M25.189 28.977h-1.964v-2.015h1.964a5.044 5.044 0 005.038-5.038 5.044 5.044 0 00-5.038-5.037h-2.267v-2.015h2.267c3.889 0 7.053 3.164 7.053 7.052 0 3.89-3.164 7.053-7.053 7.053z" fill="#76B7E2"/><path class="p-F4D7AF" d="M22.489 30.75L21.723 32H7.053l-4.09-8.282a22.945 22.945 0 01-.121-8.846l11.264-2.016 11.245 2.016c.967 5.42 0 11.103-2.862 15.879z" fill="#76B7E2"/><path class="p-DABBA6" d="M22.488 30.75L21.723 32h-7.617V12.856l11.244 2.016c.967 5.42 0 11.103-2.862 15.879z" fill="#4D98CB"/><path class="p-FAECD8" d="M13.075 6.045a3.41 3.41 0 01-1.15 2.54l-1.33-1.532c.283-.242.464-.605.464-1.008 0-.383-.181-.745-.463-.987a3.4 3.4 0 01-1.149-2.519A3.41 3.41 0 0110.596 0l1.33 1.531a1.327 1.327 0 00-.464 1.008c0 .383.182.746.464.987a3.4 3.4 0 011.149 2.52zM16.962 8.577L15.636 7.06a1.334 1.334 0 000-2.009 3.349 3.349 0 010-5.044l1.326 1.518a1.334 1.334 0 000 2.009 3.349 3.349 0 010 5.043zM25.35 14.871H2.84a23.364 23.364 0 011.27-4.413H24.1c.585 1.431.968 2.922 1.25 4.413z" fill="#B9DFFC"/><path class="p-F4D7AF" d="M25.35 14.871H14.105v-4.413H24.1c.585 1.431.968 2.922 1.25 4.413z" fill="#76B7E2"/><path class="p-714C2F" d="M14.025 27.587C13.602 30.106 10.72 32 7.053 32 3.103 32 0 29.783 0 26.962c0-.262.06-.524.1-.766 1.895 1.935 4.797.182 6.953-1.25 1.834-1.228 4.212.787 6.045 2.016l.927.625z" fill="#76B7E2"/><path class="p-523522" d="M14.025 27.587C13.602 30.106 10.72 32 7.053 32v-7.053c1.833-1.23 4.211.786 6.045 2.015l.927.625z" fill="#4D98CB"/><path class="p-895D3C" d="M14.106 26.962c0 .202-.06.403-.08.625l-.928-.625a5.416 5.416 0 00-6.045 0c-2.156 1.43-5.058 1.169-6.952-.766.503-2.438 3.365-4.272 6.952-4.272 3.95 0 7.053 2.217 7.053 5.038z" fill="#B9DFFC"/><path class="p-714C2F" d="M14.106 26.962c0 .202-.06.403-.08.625l-.928-.625a5.416 5.416 0 00-6.045 0v-5.038c3.95 0 7.053 2.217 7.053 5.038z" fill="#A1D1FD"/></svg>
